X: 33356
T: Queen Of The Fair
R: jig
M: 6/8
K: Dmajor
|:FEF D3|DFA dAF|G3 FGA|BGE EAG|
FEF D3|DFA dAF|GFG EFG|1 FDD D2E:|2 FDD D2g||
|:fdf ece|dAG FED|DFA dAF|GFG E2g|
fdf ece|dAG FED|DFd EFG|1 FDD D2g:|2 FDD D3||
|:Add fdd|add fdd|Ace g3|fdf ecA|
a3 geg|fdf ecA|EFG BAG|1 FGE D2E:|2 FDD D3||

